epam-assets/icon-sources/18/devices.svg

<svg width="18" height="18" viewBox="0 0 18 18" fill="none" xmlns="http://www.w3.org/2000/svg">
<g id="18/devices">
<path id="icon" d="M1.5 15.0002V12.7501H3V4.50002C3 4.08751 3.14688 3.73438 3.44063 3.44063C3.73438 3.14688 4.0875 3 4.5 3H15.75V4.50002H4.5V12.7501H9V15.0002H1.5ZM11.25 15.0002C11.0375 15.0002 10.8594 14.9283 10.7156 14.7845C10.5719 14.6408 10.5 14.4626 10.5 14.2501V6.75005C10.5 6.53755 10.5719 6.35942 10.7156 6.21567C10.8594 6.07191 11.0375 6.00004 11.25 6.00004H15.75C15.9625 6.00004 16.1406 6.07191 16.2844 6.21567C16.4281 6.35942 16.5 6.53755 16.5 6.75005V14.2501C16.5 14.4626 16.4281 14.6408 16.2844 14.7845C16.1406 14.9283 15.9625 15.0002 15.75 15.0002H11.25ZM12 12.7501H15V7.50006H12V12.7501Z" fill="#6C6F80"/>
</g>
</svg>

<svg xmlns="http://www.w3.org/2000/svg" width="18" height="18" fill="none" viewBox="0 0 18 18">
  <path fill="#6C6F80" d="M1.5 15v-2.25H3V4.5c0-.412.147-.766.44-1.06A1.45 1.45 0 0 1 4.5 3h11.25v1.5H4.5v8.25H9V15H1.5Zm9.75 0a.726.726 0 0 1-.534-.216.726.726 0 0 1-.216-.534v-7.5c0-.212.072-.39.216-.534A.726.726 0 0 1 11.25 6h4.5c.213 0 .39.072.534.216a.726.726 0 0 1 .216.534v7.5c0 .213-.072.39-.216.534a.726.726 0 0 1-.534.216h-4.5Zm.75-2.25h3V7.5h-3v5.25Z"/>
</svg>
